docs/images/icons/arrow.svg

<svg width="105" height="100" viewBox="0 0 105 100" fill="none" xmlns="http://www.w3.org/2000/svg">
<path d="M96.5824 13.5996C100.872 29.4519 97.1198 49.3832 79.7424 55.264C71.6678 58.0112 61.7325 55.8302 56.0318 49.1517C51.6084 43.9674 52.2528 36.0992 59.6368 34.7977C62.2184 34.4415 64.8602 34.7045 67.3418 35.5648C69.8234 36.4251 72.0728 37.8577 73.9022 39.7431C87.9476 54.0306 72.0838 72.4081 57.8945 77.4423C41.4407 83.3003 22.7644 80.1224 8.28795 70.3209C6.18637 68.9014 3.83822 71.9661 5.93981 73.3855C21.6383 84.0102 41.7004 87.3819 59.4875 81.021C73.981 75.8573 87.0859 61.7273 81.7799 45.3259C80.6474 41.8306 78.5979 38.6815 75.8442 36.2054C73.0904 33.7293 69.7326 32.0163 66.1191 31.2441C60.2627 29.9857 52.458 31.2843 49.661 37.1407C46.4147 43.8235 51.8937 51.5273 57.2927 55.4203C60.3068 57.5534 63.7287 59.0405 67.3349 59.7845C70.9411 60.5285 74.6505 60.5126 78.2209 59.738C99.2315 55.112 105.471 31.5876 100.446 13.0623C99.7962 10.6739 95.9243 11.1711 96.5824 13.5996Z" fill="#3742F3"/>
<path d="M18.242 86.6162C13.6509 81.5041 9.36078 76.1353 5.39361 70.5374L4.65 73.4952C12.1851 70.7894 19.4527 67.4264 26.3686 63.4452C28.4926 62.2143 26.9177 58.6161 24.7778 59.8709C17.8681 63.8557 10.6045 67.2194 3.07217 69.9226C2.80102 70.0404 2.56135 70.2179 2.37104 70.4418C2.18073 70.6657 2.04468 70.9304 1.97306 71.216C1.90143 71.5016 1.89606 71.8007 1.95736 72.0912C2.01867 72.3816 2.14506 72.6558 2.3271 72.8933C6.27795 78.4874 10.5508 83.8539 15.1237 88.9654C16.8031 90.8354 19.8826 88.4811 18.1772 86.6078L18.242 86.6162Z" fill="#3742F3"/>
</svg>

<svg width="105" height="100" fill="none" xmlns="http://www.w3.org/2000/svg"><path d="M96.582 13.6c4.29 15.852.538 35.783-16.84 41.664-8.074 2.747-18.01.566-23.71-6.112-4.424-5.185-3.78-13.053 3.605-14.354a16.604 16.604 0 0 1 7.705.767 16.825 16.825 0 0 1 6.56 4.178c14.046 14.288-1.818 32.665-16.008 37.7-16.453 5.857-35.13 2.68-49.606-7.122-2.102-1.42-4.45 1.645-2.348 3.064C21.638 84.01 41.7 87.382 59.487 81.021c14.494-5.164 27.599-19.294 22.293-35.695a20.974 20.974 0 0 0-5.936-9.12 21.176 21.176 0 0 0-9.725-4.962c-5.856-1.258-13.661.04-16.458 5.897-3.246 6.683 2.233 14.386 7.632 18.28a26.75 26.75 0 0 0 10.042 4.364c3.606.744 7.316.728 10.886-.047 21.01-4.626 27.25-28.15 22.225-46.676-.65-2.388-4.522-1.89-3.864.538Z" fill="#3742F3"/><path d="M18.242 86.616A178.73 178.73 0 0 1 5.394 70.537l-.744 2.958a134.938 134.938 0 0 0 21.719-10.05c2.124-1.23.549-4.829-1.591-3.574A134.146 134.146 0 0 1 3.072 69.923a1.927 1.927 0 0 0-1.099 1.293 1.945 1.945 0 0 0-.016.875c.062.29.188.565.37.802a178.858 178.858 0 0 0 12.797 16.072c1.68 1.87 4.759-.484 3.053-2.357l.065.008Z" fill="#3742F3"/></svg>
